images/crop.svg

<?xml version="1.0" encoding="utf-8"?>
<!-- Generated by IcoMoon.io -->
<!DOCTYPE svg PUBLIC "-//W3C//DTD SVG 1.1//EN" "http://www.w3.org/Graphics/SVG/1.1/DTD/svg11.dtd">
<svg version="1.1" xmlns="http://www.w3.org/2000/svg" xmlns:xlink="http://www.w3.org/1999/xlink" width="30" height="30" viewBox="0 0 30 30">
<g>
	<line stroke-width="1" x1="" y1="" x2="" y2="" stroke="#449FDB" opacity=""></line>
</g>
	<path d="M21.872 8.908c0.043 0.125 0.078 0.255 0.078 0.394v11.037h3.091c0.052 0.528 0.078 1.061 0.081 1.603h-3.172v3.18c-0.539 0-1.074-0.029-1.602-0.080v-3.1h-11.035c-0.688 0-1.244-0.558-1.244-1.242v-11.036h-3.069c-0.052-0.528-0.080-1.063-0.082-1.604h3.15v-3.18c0.542 0.002 1.078 0.029 1.605 0.080v3.1h11.036c0.132 0 0.255 0.036 0.376 0.076l3.386-3.386c0.311 0.204 0.575 0.47 0.78 0.781l-3.379 3.377zM9.673 9.664v9.883l9.882-9.883h-9.882zM10.441 20.339h9.908v-9.907l-9.908 9.907z" fill="#000000"></path>
</svg>

<?xml version="1.0" encoding="UTF-8" standalone="no"?>
<!-- Created with Inkscape (http://www.inkscape.org/) -->

<svg
   xmlns:dc="http://purl.org/dc/elements/1.1/"
   xmlns:cc="http://creativecommons.org/ns#"
   xmlns:rdf="http://www.w3.org/1999/02/22-rdf-syntax-ns#"
   xmlns:svg="http://www.w3.org/2000/svg"
   xmlns="http://www.w3.org/2000/svg"
   xmlns:inkscape="http://www.inkscape.org/namespaces/inkscape"
   version="1.1"
   width="30"
   height="30"
   viewBox="0 0 30 30"
   id="svg2">
  <metadata
     id="metadata10">
    <rdf:RDF>
      <cc:Work
         rdf:about="">
        <dc:format>image/svg+xml</dc:format>
        <dc:type
           rdf:resource="http://purl.org/dc/dcmitype/StillImage" />
      </cc:Work>
    </rdf:RDF>
  </metadata>
  <defs
     id="defs8" />
  <path
     d="m 21.872,8.908 c 0.043,0.125 0.078,0.255 0.078,0.394 V 20.34 h 3.09 c 0.053,0.527 0.08,1.06 0.082,1.602 H 21.95 v 3.18 c -0.54,0 -1.074,-0.03 -1.602,-0.08 v -3.1 H 9.313 C 8.625,21.942 8.069,21.384 8.069,20.7 V 9.664 H 5 C 4.948,9.136 4.92,8.601 4.918,8.06 h 3.15 V 4.88 C 8.61,4.882 9.146,4.91 9.673,4.96 v 3.1 H 20.71 c 0.13,0 0.254,0.036 0.375,0.076 L 24.47,4.75 c 0.312,0.204 0.576,0.47 0.78,0.78 l -3.377,3.38 z m -12.2,0.756 v 9.883 L 19.555,9.664 H 9.673 z m 0.77,10.675 h 9.907 v -9.91 l -9.91,9.9 z"
     inkscape:connector-curvature="0"
     id="path4" />
</svg>
